remix/Finance/shopping-cart-2-fill.svg

<svg viewBox="0 0 24 24" fill="currentColor" xmlns="http://www.w3.org/2000/svg"><path d="M4.00436 6.41686L0.761719 3.17422L2.17593 1.76001L5.41857 5.00265H20.6603C21.2126 5.00265 21.6603 5.45037 21.6603 6.00265C21.6603 6.09997 21.6461 6.19678 21.6182 6.29L19.2182 14.29C19.0913 14.713 18.7019 15.0027 18.2603 15.0027H6.00436V17.0027H17.0044V19.0027H5.00436C4.45207 19.0027 4.00436 18.5549 4.00436 18.0027V6.41686ZM5.50436 23.0027C4.67593 23.0027 4.00436 22.3311 4.00436 21.5027C4.00436 20.6742 4.67593 20.0027 5.50436 20.0027C6.33279 20.0027 7.00436 20.6742 7.00436 21.5027C7.00436 22.3311 6.33279 23.0027 5.50436 23.0027ZM17.5044 23.0027C16.6759 23.0027 16.0044 22.3311 16.0044 21.5027C16.0044 20.6742 16.6759 20.0027 17.5044 20.0027C18.3328 20.0027 19.0044 20.6742 19.0044 21.5027C19.0044 22.3311 18.3328 23.0027 17.5044 23.0027Z"/></svg>

<svg viewBox="0 0 24 24" xmlns="http://www.w3.org/2000/svg"><path fill="none" d="M0 0h24v24H0Z"/><path d="M4 6.414L.75 3.17l1.41-1.415 3.24 3.24h15.24v0c.55-.01 1 .44 1 .99 0 .09-.02.19-.05.28l-2.4 8v0c-.13.42-.52.71-.96.71H5.98v2h11v2h-12v0c-.56 0-1-.45-1-1V6.391ZM5.5 23v0c-.83 0-1.5-.68-1.5-1.5 0-.83.67-1.5 1.5-1.5v0c.82 0 1.5.67 1.5 1.5 0 .82-.68 1.5-1.5 1.5Zm12 0v0c-.83 0-1.5-.68-1.5-1.5 0-.83.67-1.5 1.5-1.5v0c.82 0 1.5.67 1.5 1.5 0 .82-.68 1.5-1.5 1.5Z"/></svg>
